Papirus/64x64/mimetypes/application-vnd.android.package-archive.svg

<svg xmlns="http://www.w3.org/2000/svg" width="64" height="64" version="1">
 <path style="opacity:0.2" d="M 14.5,8 C 13.115,8 12,9.115 12,10.5 v 45 c 0,1.385 1.115,2.5 2.5,2.5 h 35 C 50.885,58 52,56.885 52,55.5 V 23 L 38.25,21.75 37,8 Z"/>
 <path fill="#a3c639" d="m14.5 7c-1.385 0-2.5 1.115-2.5 2.5v45c0 1.385 1.115 2.5 2.5 2.5h35c1.385 0 2.5-1.115 2.5-2.5v-32.5l-13.75-1.25-1.25-13.75z"/>
 <path style="opacity:0.2" d="m 37,8 v 12.5 c 0,1.3808 1.1193,2.5 2.5,2.5 H 52 Z"/>
 <path fill="#d7f57c" d="m37 7v12.5c0 1.3808 1.1193 2.5 2.5 2.5h12.5l-15-15z"/>
 <path fill="#fff" d="m22.262 30.944"/>
 <path style="opacity:0.2" d="m 27.057,25.773 c -0.05625,-0.0125 -0.11602,-0.0038 -0.16602,0.03125 -0.1,0.0625 -0.11727,0.20164 -0.04102,0.30664 l 1.2695,1.7715 c -2.02,0.902 -3.939,3.12 -4.12,5.118 h 15 c -0.18125,-1.9975 -2.3438,-4.2197 -4.3613,-5.1172 l 1.2695,-1.7715 c 0.07625,-0.105 0.05523,-0.24039 -0.04102,-0.30664 -0.1,-0.0675 -0.24016,-0.03664 -0.31641,0.06836 l -1.3164,1.8418 c -0.87125,-0.33125 -1.8373,-0.51562 -2.8535,-0.51562 -1.0162,0 -1.9855,0.18438 -2.8555,0.51562 l -1.3203,-1.8418 C 27.16578,25.82091 27.11234,25.78755 27.05609,25.7738 Z M 29.004,29 C 29.558,29 30,29.446 30,29.996 30,30.546 29.552,31 29.004,31 28.45,31 28,30.552 28,29.996 28,29.446 28.45,29 29.004,29 Z m 5,0 C 34.558,29 35,29.446 35,29.996 35,30.546 34.552,31 34.004,31 33.45,31 33,30.552 33,29.996 33,29.446 33.45,29 34.004,29 Z m -12.438,5 v 0.002 c -0.862,0 -1.566,0.68 -1.566,1.519 v 5.9531 c 0,0.84 0.704,1.526 1.566,1.526 0.863,0 1.434,-0.686 1.434,-1.525 V 35.522 C 23,34.681 22.43,34 21.566,34 Z M 24,34 V 44.898 C 24,45.56 24.813,46 25.48,46 H 27 v 3.768 C 27,50.585 27.781,51 28.5,51 29.219,51 30.107,50.577 30,49.768 V 46 h 3 v 3.7676 c 0,0.817 0.781,1.232 1.5,1.232 0.719,0 1.554,-0.418 1.5,-1.232 v -3.768 h 1.27 c 0.663,0 1.73,-0.442 1.73,-1.102 v -10.898 z m 17.566,0 v 0.002 c -0.862,0 -1.566,0.68 -1.566,1.519 v 5.9531 c 0,0.84 0.704,1.526 1.566,1.526 0.863,0 1.434,-0.686 1.434,-1.525 V 35.522 C 43,34.681 42.43,34 41.566,34 Z"/>
 <path fill="#fff" d="m27.057 24.773c-0.05625-0.0125-0.11602-0.0038-0.16602 0.03125-0.1 0.0625-0.11727 0.20164-0.04102 0.30664l1.2695 1.7715c-2.02 0.902-3.939 3.12-4.12 5.118h15c-0.18125-1.9975-2.3438-4.2197-4.3613-5.1172l1.2695-1.7715c0.07625-0.105 0.05523-0.24039-0.04102-0.30664-0.1-0.0675-0.24016-0.03664-0.31641 0.06836l-1.3164 1.8418c-0.87125-0.33125-1.8373-0.51562-2.8535-0.51562s-1.9855 0.18438-2.8555 0.51562l-1.3203-1.8418c-0.03875-0.0525-0.09219-0.08586-0.14844-0.09961zm1.947 3.227c0.554 0 0.996 0.446 0.996 0.996s-0.448 1.004-0.996 1.004c-0.554 0-1.004-0.448-1.004-1.004 0-0.55 0.45-0.996 1.004-0.996zm5 0c0.554 0 0.996 0.446 0.996 0.996s-0.448 1.004-0.996 1.004c-0.554 0-1.004-0.448-1.004-1.004 0-0.55 0.45-0.996 1.004-0.996zm-12.438 5v0.002c-0.862 0-1.566 0.68-1.566 1.519v5.9531c0 0.84 0.704 1.526 1.566 1.526 0.863 0 1.434-0.686 1.434-1.525v-5.9531c0-0.841-0.57-1.522-1.434-1.522zm2.434 0v10.898c0 0.662 0.813 1.102 1.48 1.102h1.52v3.768c0 0.817 0.781 1.232 1.5 1.232s1.607-0.423 1.5-1.232v-3.768h3v3.7676c0 0.817 0.781 1.232 1.5 1.232s1.554-0.418 1.5-1.232v-3.768h1.27c0.663 0 1.73-0.442 1.73-1.102v-10.898zm17.566 0v0.002c-0.862 0-1.566 0.68-1.566 1.519v5.9531c0 0.84 0.704 1.526 1.566 1.526 0.863 0 1.434-0.686 1.434-1.525v-5.9531c0-0.841-0.57-1.522-1.434-1.522z"/>
 <path fill="#fff" d="m31.378 35.54"/>
 <path fill="#fff" d="m34.37 27.674"/>
 <path style="opacity:0.2;fill:#ffffff" d="M 14.5,7 C 13.115,7 12,8.115 12,9.5 v 1 C 12,9.115 13.115,8 14.5,8 H 37 c 0,-1 0,0 0,-1 z"/>
 <path style="opacity:0.2" d="M 22.262,31.944"/>
 <path style="opacity:0.2" d="M 31.378,36.54"/>
 <path style="opacity:0.2" d="M 34.37,28.674"/>
</svg>

<svg xmlns="http://www.w3.org/2000/svg" width="64" height="64" version="1.1">
 <path style="opacity:0.2" d="M 14.5,8 C 13.115,8 12,9.115 12,10.5 V 55.5 C 12,56.885 13.115,58 14.5,58 H 49.5 C 50.885,58 52,56.885 52,55.5 V 23 L 37,8 Z"/>
 <path style="fill:#a3c639" d="M 14.5,7 C 13.115,7 12,8.115 12,9.5 V 54.5 C 12,55.885 13.115,57 14.5,57 H 49.5 C 50.885,57 52,55.885 52,54.5 V 22 L 40,19 37,7 Z"/>
 <path style="opacity:0.2" d="M 52,23 37,8 V 20.5 C 37,21.885 38.115,23 39.5,23 Z"/>
 <path style="fill:#d7f57c" d="M 52,22 37,7 V 19.5 C 37,20.885 38.115,22 39.5,22 Z"/>
 <path style="opacity:0.2;fill:#ffffff" d="M 14.5 7 C 13.115 7 12 8.115 12 9.5 L 12 10.5 C 12 9.115 13.115 8 14.5 8 L 37 8 L 37 7 L 14.5 7 z"/>
 <path style="opacity:0.2" d="M 27.057,25.774 C 27.001,25.761 26.941,25.77 26.891,25.805 26.791,25.868 26.774,26.007 26.85,26.112 L 28.119,27.883 C 26.099,28.785 24.18,31.003 23.999,33.001 H 38.999 C 38.818,31.004 36.656,28.782 34.638,27.884 L 35.908,26.113 C 35.984,26.008 35.963,25.872 35.867,25.806 35.767,25.739 35.626,25.769 35.55,25.874 L 34.234,27.716 C 33.363,27.385 32.397,27.201 31.38,27.201 30.364,27.201 29.395,27.385 28.525,27.716 L 27.205,25.874 C 27.166,25.822 27.112,25.789 27.056,25.775 Z M 29.004,29.001 C 29.558,29.001 30,29.447 30,29.997 30,30.547 29.552,31.001 29.004,31.001 28.45,31.001 28,30.553 28,29.997 28,29.447 28.45,29.001 29.004,29.001 Z M 34.004,29.001 C 34.558,29.001 35,29.447 35,29.997 35,30.547 34.552,31.001 34.004,31.001 33.45,31.001 33,30.553 33,29.997 33,29.447 33.45,29.001 34.004,29.001 Z M 21.566,34.001 V 34.003 C 20.704,34.003 20,34.683 20,35.521 V 41.474 C 20,42.314 20.704,43 21.566,43 22.429,43 23,42.314 23,41.475 V 35.522 C 23,34.682 22.43,34.001 21.566,34.001 Z M 24,34.001 V 44.898 C 24,45.56 24.813,46 25.48,46 H 27 V 49.768 C 27,50.585 27.781,51 28.5,51 29.219,51 30.107,50.577 30,49.768 V 46 H 33 V 49.768 C 33,50.585 33.781,51 34.5,51 35.219,51 36.054,50.582 36,49.768 V 46 H 37.27 C 37.933,46 39,45.558 39,44.898 V 34.001 Z M 41.566,34.001 V 34.003 C 40.704,34.003 40,34.683 40,35.521 V 41.474 C 40,42.314 40.704,43 41.566,43 42.429,43 43,42.314 43,41.475 V 35.522 C 43,34.682 42.43,34.001 41.566,34.001 Z"/>
 <path style="fill:#ffffff" d="M 27.057,24.774 C 27.001,24.761 26.941,24.77 26.891,24.805 26.791,24.868 26.774,25.007 26.85,25.112 L 28.119,26.883 C 26.099,27.785 24.18,30.003 23.999,32.001 H 38.999 C 38.818,30.004 36.656,27.782 34.638,26.884 L 35.908,25.113 C 35.984,25.008 35.963,24.872 35.867,24.806 35.767,24.739 35.626,24.769 35.55,24.874 L 34.234,26.716 C 33.363,26.385 32.397,26.201 31.38,26.201 30.364,26.201 29.395,26.385 28.525,26.716 L 27.205,24.874 C 27.166,24.822 27.112,24.789 27.056,24.775 Z M 29.004,28.001 C 29.558,28.001 30,28.447 30,28.997 30,29.547 29.552,30.001 29.004,30.001 28.45,30.001 28,29.553 28,28.997 28,28.447 28.45,28.001 29.004,28.001 Z M 34.004,28.001 C 34.558,28.001 35,28.447 35,28.997 35,29.547 34.552,30.001 34.004,30.001 33.45,30.001 33,29.553 33,28.997 33,28.447 33.45,28.001 34.004,28.001 Z M 21.566,33.001 V 33.003 C 20.704,33.003 20,33.683 20,34.522 V 40.474 C 20,41.314 20.704,42 21.566,42 22.429,42 23,41.314 23,40.475 V 34.523 C 23,33.682 22.43,33.001 21.566,33.001 Z M 24,33.001 V 43.898 C 24,44.56 24.813,45 25.48,45 H 27 V 48.768 C 27,49.585 27.781,50 28.5,50 29.219,50 30.107,49.577 30,48.768 V 45 H 33 V 48.768 C 33,49.585 33.781,50 34.5,50 35.219,50 36.054,49.582 36,48.768 V 45 H 37.27 C 37.933,45 39,44.558 39,43.898 V 33.001 Z M 41.566,33.001 V 33.003 C 40.704,33.003 40,33.683 40,34.522 V 40.474 C 40,41.314 40.704,42 41.566,42 42.429,42 43,41.314 43,40.475 V 34.523 C 43,33.682 42.43,33.001 41.566,33.001 Z"/>
</svg>
